src/static/logos/redsmin.svg

<?xml version="1.0" encoding="UTF-8" standalone="no"?>
<svg width="256px" height="344px" viewBox="0 0 256 344" version="1.1" xmlns="http://www.w3.org/2000/svg" xmlns:xlink="http://www.w3.org/1999/xlink" preserveAspectRatio="xMidYMid">
	<g>
		<path d="M0,324.4331 C0,335.2411 8.761,344.0001 19.567,344.0001 C30.373,344.0001 39.134,335.2411 39.134,324.4331 L39.134,196.6911 L38.229,196.3621 L0.327,218.7441 L0,219.8011 L0,324.4331 Z" fill="#EE3A43"></path>
		<path d="M0,83.7621 L0,219.8011 L39.134,196.6911 L39.134,94.9611 L39.148,94.5511 L3.168,73.7361 L2.7,73.8691 C0.967,76.8221 0,80.2211 0,83.7621" fill="#CF3239"></path>
		<path d="M117.9269,3.297 L9.6569,66.889 C6.7279,68.61 4.3619,71.035 2.6999,73.869 L39.1339,94.961 L127.9489,42.796 L128.6979,41.581 L128.6979,1.439 L127.9489,0.619 C124.4769,0.595 121.0239,1.479 117.9269,3.297" fill="#AF272B"></path>
		<path d="M245.5227,65.1601 L137.5777,3.1991 C134.6017,1.4921 131.2647,0.6421 127.9497,0.6191 L127.9497,42.7961 L216.2737,93.4941 L216.8447,93.6461 L253.7567,75.2891 L253.9217,74.8431 C252.3077,70.8271 249.3967,67.3841 245.5227,65.1601" fill="#7A1313"></path>
		<path d="M255.9997,204.6469 L255.3477,82.0269 C255.3347,79.5219 254.8257,77.0949 253.9207,74.8429 L216.2737,93.4939 L216.2827,193.6439 L216.4267,194.3779 L250.6937,217.2129 L251.5367,217.1339 C254.3827,213.6609 256.0237,209.2759 255.9997,204.6469" fill="#AF272B"></path>
		<path d="M251.5365,217.1335 L216.2825,193.6445 L118.7435,250.8035 C118.6705,250.8465 167.3665,268.4515 167.3665,268.4515 L246.2515,221.6405 C248.2425,220.4595 250.1125,218.8705 251.5365,217.1335" fill="#CF3239"></path>
		<path d="M228.8354,343.8739 C225.6384,343.8739 222.3974,343.0909 219.4014,341.4359 L117.9614,285.4789 C108.4994,280.2589 105.0594,268.3579 110.2794,258.8959 C115.4964,249.4329 127.4044,245.9859 136.8634,251.2139 L238.3034,307.1709 C247.7664,312.3909 251.2054,324.2919 245.9854,333.7539 C242.4194,340.2199 235.7314,343.8739 228.8354,343.8739" fill="#EE3A43"></path>
		<g transform="translate(82.000000, 96.000000)">
			<path d="M45.4768,48.6336 L86.4008,24.5136 L86.6428,23.7946 C84.6508,20.8226 82.0238,18.2626 78.8198,16.4126 L57.4228,4.0596 C50.0608,-0.1914 40.9908,-0.1914 33.6298,4.0596 L12.2318,16.4126 C9.0668,18.2406 6.4658,20.7606 4.4818,23.6856 L4.6618,24.5136 L45.4768,48.6336 Z" fill="#CF3239"></path>
			<path d="M78.8198,82.3314 C82.9528,79.9454 86.1498,76.4004 88.1988,72.2654 L87.9578,71.5224 L46.3148,47.7034 L45.4398,47.8094 L44.2278,47.8784 L3.0488,72.1424 L3.0968,72.7594 C5.1548,76.6814 8.2638,80.0404 12.2318,82.3314 L33.6298,94.6854 C40.9908,98.9354 50.0608,98.9354 57.4228,94.6854 L78.8198,82.3314 Z" fill="#7A1313"></path>
			<path d="M4.4787,23.6896 C1.8497,27.5666 0.3357,32.1746 0.3357,37.0186 L0.3357,61.7256 C0.3357,65.6526 1.3407,69.4226 3.1077,72.7816 L45.4407,47.8086 L4.4787,23.6896 Z" fill="#AF272B"></path>
			<path d="M88.201,72.2615 C89.8,69.0325 90.716,65.4525 90.716,61.7255 L90.716,37.0185 C90.716,32.2195 89.229,27.6535 86.646,23.7985 L45.44,47.8095 L88.201,72.2615 Z" fill="#EE3A43"></path>
		</g>
	</g>
</svg>

<svg width="256" height="344" xmlns="http://www.w3.org/2000/svg" preserveAspectRatio="xMidYMid"><path d="M0 324.433C0 335.241 8.761 344 19.567 344c10.806 0 19.567-8.759 19.567-19.567V196.691l-.905-.329L.327 218.744 0 219.801v104.632z" fill="#EE3A43"/><path d="M0 83.762v136.04l39.134-23.11V94.961l.014-.41-35.98-20.816-.468.133A19.531 19.531 0 000 83.762" fill="#CF3239"/><path d="M117.927 3.297L9.657 66.889a19.549 19.549 0 00-6.957 6.98l36.434 21.092 88.815-52.165.749-1.215V1.439l-.75-.82a19.468 19.468 0 00-10.021 2.678" fill="#AF272B"/><path d="M245.523 65.16L137.578 3.2A19.638 19.638 0 00127.95.62v42.176l88.324 50.698.57.152 36.913-18.357.165-.446a19.546 19.546 0 00-8.4-9.683" fill="#7A1313"/><path d="M256 204.647l-.652-122.62a19.52 19.52 0 00-1.427-7.184l-37.647 18.65.009 100.15.144.735 34.267 22.835.843-.08c2.846-3.472 4.487-7.857 4.463-12.486" fill="#AF272B"/><path d="M251.536 217.133l-35.254-23.489-97.539 57.16c-.072.042 48.624 17.648 48.624 17.648l78.885-46.811c1.99-1.181 3.86-2.77 5.284-4.507" fill="#CF3239"/><path d="M228.835 343.874c-3.197 0-6.438-.783-9.434-2.438l-101.44-55.957c-9.462-5.22-12.902-17.121-7.682-26.583 5.217-9.463 17.125-12.91 26.584-7.682l101.44 55.957c9.463 5.22 12.902 17.12 7.682 26.583-3.566 6.466-10.254 10.12-17.15 10.12" fill="#EE3A43"/><path d="M127.477 144.634l40.924-24.12.242-.72c-1.992-2.971-4.62-5.531-7.823-7.381l-21.397-12.353a23.79 23.79 0 00-23.793 0l-21.398 12.353c-3.165 1.828-5.766 4.348-7.75 7.273l.18.828 40.815 24.12z" fill="#CF3239"/><path d="M160.82 178.331c4.133-2.386 7.33-5.93 9.379-10.066l-.241-.743-41.643-23.819-.875.106-1.212.07-41.18 24.263.049.617c2.058 3.922 5.167 7.281 9.135 9.572l21.398 12.354a23.794 23.794 0 0023.793 0l21.397-12.354z" fill="#7A1313"/><path d="M86.479 119.69c-2.63 3.877-4.143 8.485-4.143 13.329v24.707c0 3.927 1.005 7.697 2.772 11.056l42.333-24.973-40.962-24.12z" fill="#AF272B"/><path d="M170.201 168.262c1.599-3.23 2.515-6.81 2.515-10.536v-24.707c0-4.8-1.487-9.365-4.07-13.22l-41.206 24.01 42.761 24.453z" fill="#EE3A43"/></svg>
